img/logo2-black.svg

<svg width="137" height="18" viewBox="0 0 137 18" fill="none" xmlns="http://www.w3.org/2000/svg">
<path d="M0 17.6301V17.2849H1.46962C1.70611 17.1041 1.82436 16.8822 1.82436 16.6192V1.38082C1.82436 1.11781 1.70611 0.895891 1.46962 0.715068H0V0.369863H8.08293V0.715068H6.6133C6.37681 0.895891 6.25857 1.11781 6.25857 1.38082V8.50685H6.91737L11.909 3.20548C12.1624 2.94247 12.3567 2.66301 12.4918 2.36712C12.6269 2.0548 12.6945 1.77534 12.6945 1.52877C12.6945 1.10137 12.534 0.830137 12.2131 0.715068H9.80593V0.369863H16.1152V0.715068H14.7976L9.67924 6.09041L16.3939 15.8055C16.7993 16.3973 17.1287 16.7918 17.3821 16.989C17.6524 17.1863 17.9733 17.2849 18.345 17.2849V17.6301H9.60323V17.2849H11.2502C11.4529 17.1534 11.5543 16.9151 11.5543 16.5699C11.5543 16.1918 11.4529 15.8466 11.2502 15.5342L6.91737 8.87671H6.25857V16.6192C6.25857 16.8822 6.37681 17.1041 6.6133 17.2849H8.08293V17.6301H0Z" fill="#000"/>
<path d="M26.9891 18C25.1647 18 23.56 17.6301 22.1748 16.8904C20.8065 16.1507 19.7423 15.1068 18.9822 13.7589C18.222 12.411 17.8419 10.8493 17.8419 9.07397C17.8419 7.26575 18.222 5.67945 18.9822 4.31507C19.7592 2.93425 20.8488 1.87397 22.2508 1.13425C23.6698 0.378082 25.2999 0 27.1411 0C28.9655 0 30.5618 0.369863 31.9301 1.10959C33.3152 1.84932 34.3879 2.89315 35.148 4.2411C35.9082 5.58904 36.2883 7.15069 36.2883 8.92603C36.2883 10.7342 35.8997 12.3288 35.1227 13.7096C34.3625 15.074 33.273 16.1342 31.854 16.8904C30.452 17.6301 28.8303 18 26.9891 18ZM27.0651 17.6301C28.5516 17.6301 29.6581 16.9233 30.3844 15.5096C31.1108 14.0959 31.474 11.9589 31.474 9.09863C31.474 6.15616 31.1108 3.96986 30.3844 2.53973C29.6581 1.09315 28.5516 0.369863 27.0651 0.369863C25.5786 0.369863 24.4721 1.07671 23.7458 2.49041C23.0194 3.90411 22.6562 6.0411 22.6562 8.90137C22.6562 11.8438 23.0194 14.0384 23.7458 15.4849C24.4721 16.9151 25.5786 17.6301 27.0651 17.6301Z" fill="#000"/>
<path d="M46.3751 18C44.7028 18 43.2162 17.6301 41.9155 16.8904C40.6317 16.1507 39.6266 15.0904 38.9003 13.7096C38.1739 12.3288 37.8107 10.7178 37.8107 8.87671C37.8107 7.15069 38.1739 5.6137 38.9003 4.26575C39.6266 2.91781 40.6571 1.87397 41.9916 1.13425C43.3429 0.378082 44.9139 0 46.7045 0C48.2248 0 49.5593 0.254795 50.7079 0.764384C51.8735 1.27397 52.7941 2.0137 53.4698 2.98356C54.1624 3.95342 54.5425 5.11233 54.61 6.46027L50.4292 6.95342C50.4292 4.70137 50.1336 3.0411 49.5424 1.9726C48.968 0.904109 48.0221 0.369863 46.7045 0.369863C45.3193 0.369863 44.272 0.978082 43.5625 2.19452C42.8531 3.39452 42.4983 5.16164 42.4983 7.49589C42.4983 9.10685 42.7602 10.5205 43.2838 11.737C43.8075 12.937 44.5423 13.8658 45.4882 14.5233C46.4511 15.1644 47.5744 15.4849 48.8582 15.4849C50.2941 15.4849 51.5103 15.0247 52.507 14.1041C53.5205 13.1836 54.23 11.8767 54.6354 10.1836L54.9901 10.2575C53.6725 15.4192 50.8008 18 46.3751 18Z" fill="#000"/>
<path d="M55.5642 17.6301V17.2849H56.7044C57.3294 16.6767 57.6419 15.5096 57.6419 13.7836V1.38082C57.6419 1.11781 57.5237 0.895891 57.2872 0.715068H55.8176V0.369863H61.8481L67.1438 12.2301L71.8314 0.369863H77.8112V0.715068H76.3416C76.1051 0.895891 75.9869 1.11781 75.9869 1.38082V16.6192C75.9869 16.8822 76.1051 17.1041 76.3416 17.2849H77.8112V17.6301H69.7283V17.2849H71.1979C71.4344 17.1041 71.5527 16.8822 71.5527 16.6192V2.09589L65.3448 17.7534H64.9901L58.022 2.14521V13.7836C58.022 15.5096 58.3345 16.6767 58.9595 17.2849H60.3531V17.6301H55.5642Z" fill="#000"/>
<path d="M79.2318 17.6301V17.2849H80.7014C80.9379 17.1041 81.0561 16.8822 81.0561 16.6192V1.38082C81.0561 1.11781 80.9379 0.895891 80.7014 0.715068H79.2318V0.369863H87.3147V0.715068H85.8451C85.6086 0.895891 85.4903 1.11781 85.4903 1.38082V14.8192L92.9145 0.369863H98.1595V0.715068H96.6899C96.4534 0.895891 96.3351 1.11781 96.3351 1.38082V16.6192C96.3351 16.8822 96.4534 17.1041 96.6899 17.2849H98.1595V17.6301H90.0766V17.2849H91.5462C91.7827 17.1041 91.9009 16.8822 91.9009 16.6192V3.18082L84.4768 17.6301H79.2318Z" fill="#000"/>
<path d="M106.362 18C104.048 18 102.317 17.4822 101.168 16.4466C100.036 15.3945 99.521 13.9479 99.6224 12.1068L103.55 11.737C103.533 11.9671 103.525 12.3041 103.525 12.7479C103.525 14.3753 103.736 15.6 104.158 16.4219C104.597 17.2274 105.281 17.6301 106.21 17.6301C107.123 17.6301 107.807 17.2356 108.263 16.4466C108.736 15.6575 108.972 14.5479 108.972 13.1178C108.972 10.1589 107.857 8.67945 105.628 8.67945H104.31V8.30959H105.273C106.388 8.30959 107.207 7.98082 107.731 7.32329C108.271 6.66575 108.541 5.64657 108.541 4.26575C108.541 2.93425 108.373 1.95616 108.035 1.33151C107.697 0.690411 107.173 0.369863 106.464 0.369863C105.687 0.369863 105.095 0.723288 104.69 1.43014C104.302 2.13699 104.107 3.14795 104.107 4.46301C104.107 4.89041 104.116 5.21096 104.133 5.42466L100.205 5.05479C100.205 3.49315 100.771 2.26027 101.903 1.35616C103.052 0.452055 104.656 0 106.717 0C108.71 0 110.273 0.361644 111.405 1.08493C112.537 1.80822 113.102 2.8274 113.102 4.14247C113.102 5.17808 112.756 6.05753 112.064 6.78082C111.371 7.48767 110.4 7.9726 109.15 8.23562V8.43288C110.518 8.66301 111.591 9.18082 112.368 9.9863C113.145 10.7753 113.533 11.7616 113.533 12.9452C113.533 13.9644 113.246 14.8521 112.672 15.6082C112.097 16.3644 111.27 16.9562 110.188 17.3836C109.107 17.7945 107.832 18 106.362 18Z" fill="#000"/>
<path d="M114.753 17.6301V17.2849H115.893C116.518 16.6767 116.831 15.5096 116.831 13.7836V1.38082C116.831 1.11781 116.712 0.895891 116.476 0.715068H115.006V0.369863H121.037L126.333 12.2301L131.02 0.369863H137V0.715068H135.53C135.294 0.895891 135.176 1.11781 135.176 1.38082V16.6192C135.176 16.8822 135.294 17.1041 135.53 17.2849H137V17.6301H128.917V17.2849H130.387C130.623 17.1041 130.741 16.8822 130.741 16.6192V2.09589L124.534 17.7534H124.179L117.211 2.14521V13.7836C117.211 15.5096 117.523 16.6767 118.148 17.2849H119.542V17.6301H114.753Z" fill="#000"/>
</svg>

<svg xmlns="http://www.w3.org/2000/svg" width="137" height="18" fill="none"><path fill="#000" d="M0 17.63v-.345h1.47q.354-.27.354-.666V1.381q0-.394-.354-.666H0V.37h8.083v.345h-1.47q-.354.27-.354.666v7.126h.658l4.992-5.302q.38-.394.583-.838.202-.468.202-.838 0-.642-.48-.814H9.805V.37h6.31v.345h-1.318L9.679 6.09l6.715 9.716q.608.887.988 1.183.405.296.963.296v.345H9.603v-.345h1.647q.304-.198.304-.715 0-.567-.304-1.036L6.917 8.877H6.26v7.742q0 .395.354.666h1.47v.345zM26.99 18q-2.737 0-4.815-1.11a7.9 7.9 0 0 1-3.193-3.131q-1.14-2.022-1.14-4.685 0-2.712 1.14-4.759a7.9 7.9 0 0 1 3.269-3.18Q24.379 0 27.14 0q2.736 0 4.79 1.11a7.87 7.87 0 0 1 3.217 3.131q1.14 2.022 1.14 4.685 0 2.712-1.165 4.784-1.14 2.046-3.269 3.18Q29.751 18 26.989 18m.075-.37q2.23 0 3.32-2.12t1.089-6.411q0-4.415-1.09-6.56Q29.295.37 27.065.37t-3.32 2.121-1.089 6.411q0 4.414 1.09 6.584 1.09 2.145 3.32 2.145M46.375 18q-2.508 0-4.46-1.11-1.924-1.11-3.015-3.18-1.09-2.072-1.09-4.833 0-2.589 1.09-4.611a7.67 7.67 0 0 1 3.092-3.132Q44.018 0 46.705 0q2.28 0 4.003.764 1.749.765 2.762 2.22 1.038 1.454 1.14 3.476l-4.18.493q0-3.378-.888-4.98Q48.681.37 46.705.37q-2.079 0-3.142 1.825-1.065 1.8-1.065 5.3 0 2.418.786 4.242.785 1.8 2.204 2.786 1.444.962 3.37.962 2.154 0 3.649-1.38 1.52-1.382 2.128-3.921l.355.074Q53.013 18 46.375 18M55.564 17.63v-.345h1.14q.938-.912.938-3.501V1.38q0-.394-.355-.666h-1.47V.37h6.031l5.296 11.86L71.83.37h5.98v.345h-1.47q-.354.27-.354.666v15.238q0 .395.355.666h1.47v.345h-8.084v-.345h1.47q.355-.27.355-.666V2.096l-6.208 15.657h-.355L58.022 2.145v11.639q0 2.59.938 3.5h1.393v.346zM79.232 17.63v-.345h1.47q.354-.27.354-.666V1.381q0-.394-.355-.666h-1.47V.37h8.084v.345h-1.47q-.355.27-.355.666v13.438L92.915.37h5.244v.346h-1.47q-.354.27-.354.666v15.238q0 .395.355.666h1.47v.345h-8.083v-.345h1.47q.354-.27.354-.666V3.181l-7.424 14.45zM106.362 18q-3.47 0-5.194-1.553-1.698-1.579-1.546-4.34l3.928-.37q-.025.345-.025 1.01 0 2.442.633 3.675.658 1.208 2.052 1.208 1.37 0 2.053-1.183.71-1.185.709-3.33 0-4.437-3.344-4.438h-1.318v-.37h.963q1.672 0 2.458-.986.81-.985.81-3.057 0-1.998-.506-2.934-.507-.962-1.571-.962-1.166 0-1.774 1.06-.583 1.06-.583 3.033 0 .64.026.962l-3.928-.37q0-2.343 1.698-3.699Q103.626 0 106.717 0q2.99 0 4.688 1.085t1.697 3.057q0 1.554-1.038 2.639-1.04 1.06-2.914 1.455v.197q2.052.345 3.218 1.553 1.165 1.185 1.165 2.96 0 1.528-.861 2.662-.862 1.134-2.484 1.776-1.621.616-3.826.616M114.753 17.63v-.345h1.14q.938-.912.938-3.501V1.38q0-.394-.355-.666h-1.47V.37h6.031l5.296 11.86L131.02.37H137v.345h-1.47q-.354.27-.354.666v15.238q0 .395.354.666H137v.345h-8.083v-.345h1.47q.354-.27.354-.666V2.096l-6.207 15.657h-.355l-6.968-15.608v11.639q0 2.59.937 3.5h1.394v.346z"/></svg>
